Origami/48x48/apps/mixcloud.svg

<svg width="48" height="48" version="1" xmlns="http://www.w3.org/2000/svg">
 <path d="M 24,9 C 18.305,9 13.455,12.458 11.367,17.352 6.0657,18.134 2,22.616 2,28.091 2,34.116 6.9249,39 13,39 l 23.375,0 C 41.691,39 46,34.726 46,29.455 46,24.555 42.285,20.54 37.492,19.994 36.242,13.74 30.674,9 24,9 Z" style="fill:#cccccc"/>
 <path d="m24 9c-5.695 0-10.545 3.457-12.633 8.352-5.3013 0.781-9.367 5.265-9.367 10.74 0 0.161 0.0165 0.317 0.0234 0.476 0.2507-5.234 4.213-9.46 9.3436-10.216 2.088-4.895 6.938-8.352 12.633-8.352 6.674 0 12.242 4.739 13.492 10.994 4.624 0.526 8.234 4.284 8.485 8.947 8e-3 -0.162 0.023-0.322 0.023-0.486 0-4.9-3.715-8.915-8.508-9.461-1.25-6.255-6.818-10.994-13.492-10.994z" style="fill:#ffffff;opacity:.2"/>
 <path d="M 2.0234,28.568 C 2.0151,28.743 2,28.915 2,29.092 2,35.117 6.9249,40 13,40 l 23.375,0 C 41.691,40 46,35.727 46,30.455 46,30.282 45.986,30.112 45.977,29.941 45.719,34.985 41.525,39 36.375,39 L 13,39 C 7.0871,39 2.277,34.37 2.023,28.568 Z" style="opacity:.2"/>
 <path d="m26.025 17.987151s4 2 4 8-4 8-4 8" style="fill:none;opacity:.5;stroke-linecap:round;stroke-linejoin:round;stroke-width:4;stroke:#000000"/>
 <path d="m18.025499 19.987151s3.999501 2 4 6-4 6-4 6" style="fill:none;opacity:.5;stroke-linecap:round;stroke-linejoin:round;stroke-width:4;stroke:#000000"/>
</svg>

<svg xmlns="http://www.w3.org/2000/svg" width="48" height="48" version="1">
 <path style="fill:#cccccc" d="M 24,9 C 18.305,9 13.455,12.458 11.367,17.352 6.0657,18.134 2,22.616 2,28.091 2,34.116 6.9249,39 13,39 l 23.375,0 C 41.691,39 46,34.726 46,29.455 46,24.555 42.285,20.54 37.492,19.994 36.242,13.74 30.674,9 24,9 Z"/>
 <path style="opacity:0.2;fill:#ffffff" d="M 24,9 C 18.305,9 13.455,12.457 11.367,17.352 6.0657,18.133 2,22.617 2,28.092 2,28.253 2.0165,28.409 2.0234,28.568 2.2741,23.334 6.2364,19.108 11.367,18.352 13.455,13.457 18.305,10 24,10 c 6.674,0 12.242,4.739 13.492,10.994 4.624,0.526 8.234,4.284 8.485,8.947 C 45.985,29.779 46,29.619 46,29.455 46,24.555 42.285,20.54 37.492,19.994 36.242,13.739 30.674,9 24,9 Z"/>
 <path style="opacity:0.2" d="M 2.0234,28.568 C 2.0151,28.743 2,28.915 2,29.092 2,35.117 6.9249,40 13,40 l 23.375,0 C 41.691,40 46,35.727 46,30.455 46,30.282 45.986,30.112 45.977,29.941 45.719,34.985 41.525,39 36.375,39 L 13,39 C 7.0871,39 2.277,34.37 2.023,28.568 Z"/>
 <path style="opacity:0.5;fill:none;stroke:#000000;stroke-width:4;stroke-linecap:round;stroke-linejoin:round" d="m 26.025,17.987151 c 0,0 4,2 4,8 0,6 -4,8 -4,8"/>
 <path style="opacity:0.5;fill:none;stroke:#000000;stroke-width:4;stroke-linecap:round;stroke-linejoin:round" d="m 18.025499,19.987151 c 0,0 3.999501,2 4,6 4.99e-4,4 -4,6 -4,6"/>
</svg>
